images/integrations.svg

<svg height="22" viewBox="0 0 42 22" width="42" xmlns="http://www.w3.org/2000/svg"><path d="m11.429 20-11.429-10 11.429-10m17.142 20 11.429-10-11.429-10m-14.285 12.866 5.714 5.705 5.714-5.705m-5.709-11.437v15.717" fill="none" stroke="#000" stroke-linecap="round" stroke-linejoin="round" stroke-width="2" transform="translate(1 1)"/></svg>

<svg xmlns="http://www.w3.org/2000/svg" width="42" height="22" viewBox="0 0 42 22">
    <g fill="none" fill-rule="evenodd" stroke="#000" stroke-linecap="round" stroke-linejoin="round" stroke-width="2">
        <path d="M11.429 20L0 10 11.429 0M28.571 20L40 10 28.571 0M14.286 12.866L20 18.571 25.714 12.866M20.005 1.429L20.005 17.146" transform="translate(1 1)"/>
    </g>
</svg>
